X: 32017
T: Peerie Willie
R: reel
M: 4/4
K: Gminor
DC|A,B,DF BFDB|dfba gfed|=BcGc edc_B|ABcB AFEC|
B,/B,/B, DF BFDB|dfba gfed|edcB AecA|FECA, B,2:|
|:cB|A2FA cFAc|fecA FECA,|B,2DF BDFB|bfdB FDB,f|
=e2ce gceg|bg=ec BG=E2|AFBG cAdB|=eceg f2:|

